img/clients/ds-logo.svg

<?xml version="1.0" encoding="UTF-8" standalone="no"?>
<svg width="100px" height="55px" viewBox="0 0 100 55" version="1.1" xmlns="http://www.w3.org/2000/svg" xmlns:xlink="http://www.w3.org/1999/xlink">
    <!-- Generator: Sketch 3.6.1 (26313) - http://www.bohemiancoding.com/sketch -->
    <title>DSO logo</title>
    <desc>Created with Sketch.</desc>
    <defs>
        <path id="path-1" d="M0.0280373832,0.236448598 L0.0280373832,28.9716493 L78.8845794,28.9716493 L78.8845794,0.236448598 L0.0280373832,0.236448598 L0.0280373832,0.236448598 Z"></path>
    </defs>
    <g id="Page-1" stroke="none" stroke-width="1" fill="none" fill-rule="evenodd">
        <g id="Desktop" transform="translate(-377.000000, -588.000000)">
            <g id="Clients" transform="translate(172.000000, 426.000000)">
                <g id="List-(seperated)" transform="translate(1.000000, 136.000000)">
                    <g id="DSO" transform="translate(173.000000, 0.000000)">
                        <g id="DSO-logo" transform="translate(31.000000, 26.000000)">
                            <path d="M22.0771028,27.938785 L22.0771028,23.8733645 C22.0771028,20.335514 20.5985981,16.6925234 18.6448598,16.6925234 C16.796729,16.6925234 15.6878505,17.9593458 15.7411215,26.0383178 C15.7411215,33.7481308 16.4803738,36.2294393 18.5392523,36.2294393 C20.8626168,36.2294393 22.0771028,32.4275701 22.0771028,27.938785 M10.1434579,26.0383178 C10.1434579,18.7509346 13.7869159,14.632243 17.1135514,14.632243 C19.4364486,14.632243 21.1266355,16.3224299 22.0242991,18.4341121 L22.0242991,4.6 C22.0242991,2.75186916 21.6546729,2.27616822 19.4364486,2.27616822 L19.0672897,2.27616822 L19.0672897,0.956542056 L26.9883178,0.428037383 L26.9883178,34.803271 C26.9883178,36.0705607 27.3579439,36.2294393 29.5228972,36.335514 L29.5228972,37.6551402 L22.0242991,37.9186916 L22.0242991,33.8009346 C21.3906542,35.7542056 19.8070093,38.288785 16.9551402,38.288785 C13.311215,38.288785 10.1434579,33.5897196 10.1434579,26.0383178" id="Fill-1" fill="#A02C33"></path>
                            <path d="M35.4364486,34.9616822 C34.3275701,34.9616822 33.271028,36.9686916 32.9014019,37.7607477 L31.6873832,37.7607477 L31.6873832,25.8803738 L32.9014019,25.8803738 C35.4364486,31.5831776 39.132243,36.7051402 42.5649533,36.7051402 C45.2584112,36.7051402 46.6836449,34.3813084 46.5785047,31.4771028 C46.4724299,27.6219626 43.1457944,25.0345794 39.6607477,22.3420561 C35.8060748,19.332243 31.7925234,16.0056075 31.7925234,10.1443925 C31.7925234,4.81121495 35.3836449,0.692056075 40.6640187,0.692056075 C44.2546729,0.692056075 46.1028037,3.38504673 47.2121495,3.38504673 C47.8457944,3.38504673 48.532243,2.75186916 49.2714953,1.16728972 L50.3275701,1.16728972 L50.3275701,11.9397196 L49.0598131,11.9397196 C47.3172897,7.29299065 44.5714953,2.43504673 40.9803738,2.43504673 C38.4990654,2.43504673 37.0205607,4.54672897 37.1261682,7.13457944 C37.2317757,10.9892523 40.5060748,13.628972 43.9373832,16.2691589 C47.7929907,19.332243 51.911215,22.553271 51.911215,28.3084112 C51.911215,34.803271 47.4761682,38.3943925 42.9873832,38.3943925 C38.8154206,38.3943925 36.4925234,34.9616822 35.4364486,34.9616822" id="Fill-2" fill="#A02C33"></path>
                            <path d="M59.8214953,36.2981308 L60.9813084,36.2981308 C62.7775701,36.2981308 64.9317757,35.1401869 64.9317757,29.3654206 C64.9317757,23.5897196 62.5285047,22.9098131 61.2570093,22.9098131 L59.8214953,22.9098131 L59.8214953,36.2981308 L59.8214953,36.2981308 Z M55.7186916,21.361215 L62.3233645,21.361215 C65.2317757,21.361215 67.8883178,23.0196262 67.8883178,29.4294393 C67.8883178,35.8378505 65.0883178,37.9023364 61.771028,37.9023364 L55.6560748,37.9023364 L55.6560748,36.3925234 L57.0953271,36.3925234 L57.0953271,22.9098131 L55.7186916,22.9098131 L55.7186916,21.361215 L55.7186916,21.361215 Z" id="Fill-3" fill="#333333"></path>
                            <g id="Group-8" transform="translate(0.000000, 25.700935)">
                                <mask id="mask-2" fill="white">
                                    <use xlink:href="#path-1"></use>
                                </mask>
                                <g id="Clip-5"></g>
                                <path d="M71.728972,5.01728972 L76.0672897,5.01728972 C76.0672897,2.66775701 75.2102804,1.75794393 73.8560748,1.75794393 C72.5023364,1.75794393 71.728972,3.02757009 71.728972,5.01728972 L71.728972,5.01728972 Z M73.8560748,10.8200935 C74.6299065,10.8200935 76.0116822,10.1841121 76.0116822,8.24906542 L78.6906542,8.24906542 C78.3051402,10.211215 76.9780374,12.3121495 73.6635514,12.3121495 C70.3476636,12.3121495 68.8556075,9.46495327 68.8556075,6.28971963 C68.8556075,3.11168224 70.4570093,0.236448598 73.8831776,0.236448598 C77.3093458,0.236448598 78.8845794,2.69626168 78.8845794,6.72990654 L71.7009346,6.72990654 C71.3976636,10.3775701 73.0827103,10.8200935 73.8560748,10.8200935 L73.8560748,10.8200935 Z" id="Fill-4" fill="#333333" mask="url(#mask-2)"></path>
                                <path d="M9.83598131,17.1504673 L9.83598131,12.167757 L8.26028037,12.167757 L8.26028037,13.6158879 L8.1228972,13.6158879 C6.90700935,12.3350467 5.38785047,12.003271 4.64158879,12.003271 C3.8953271,12.003271 0,12.721028 0,16.6172897 C0,20.5126168 3.67523364,21.2023364 4.2,21.4242991 C4.72476636,21.6462617 7.43224299,22.3084112 7.43224299,24.464486 C7.43224299,26.617757 5.38785047,26.9785047 4.8911215,26.9785047 C4.39299065,26.9785047 1.82336449,26.5621495 1.60280374,23.1906542 L0.0275700935,23.1906542 L0.0275700935,28.6084112 L1.62990654,28.6084112 L1.62990654,27.0985981 C2.7635514,28.2214953 3.97803738,28.8280374 5.44205607,28.8280374 C7.34953271,28.8280374 10.1953271,27.3093458 10.1953271,23.882243 C10.1953271,20.567757 6.99018692,19.4621495 6.24392523,19.1588785 C5.49813084,18.8551402 2.62476636,17.9700935 2.62476636,16.1196262 C2.62476636,14.2682243 4.55794393,13.964486 4.8911215,13.964486 C5.22196262,13.964486 8.04018692,14.1107477 8.26028037,17.1504673 L9.83598131,17.1504673" id="Fill-6" fill="#333333" mask="url(#mask-2)"></path>
                                <path d="M15.4719626,13.9079439 L14.0640187,13.9079439 C14.0640187,16.2299065 12.9014019,17.1504673 12.1009346,17.1504673 L11.2172897,17.1504673 L11.2172897,18.7434579 L12.7364486,18.7434579 L12.7364486,26.0925234 C12.7364486,27.8345794 14.5878505,29.0495327 16.0799065,28.967757 C17.5719626,28.8845794 17.9579439,28.6084112 17.9579439,28.6084112 L18.0135514,26.7275701 C16.853271,27.0985981 15.4719626,27.1158879 15.4719626,25.2369159 L15.4719626,18.771028 L18.0957944,18.771028 L18.0957944,17.1504673 L15.4719626,17.1504673 L15.4719626,13.9079439" id="Fill-7" fill="#333333" mask="url(#mask-2)"></path>
                            </g>
                            <path d="M25.2242991,48.535514 C23.6495327,48.535514 21.9649533,49.3303738 21.9649533,50.9925234 C21.9649533,52.485514 22.9869159,52.6228972 23.6228972,52.6228972 C24.2584112,52.6228972 25.196729,52.2378505 25.196729,51.0481308 C25.196729,49.8607477 25.2242991,48.535514 25.2242991,48.535514 L25.2242991,48.535514 Z M19.4775701,46.2962617 C19.4775701,44.1682243 20.1411215,42.4 23.5392523,42.4 C26.9373832,42.4 28.0705607,43.9490654 28.0705607,45.3308411 L28.0705607,52.7995327 L29.5901869,52.7995327 L29.5901869,54.3093458 L25.3350467,54.3093458 L25.196729,53.2602804 C24.0929907,54.0602804 23.428972,54.528972 22.378972,54.528972 C21.3299065,54.528972 18.9803738,53.6724299 18.9803738,51.1037383 C18.9803738,48.535514 21.6336449,47.8976636 23.3182243,47.4845794 C25.0037383,47.0714953 25.3626168,46.5724299 25.3626168,45.4943925 C25.3626168,44.4168224 24.3682243,43.9490654 23.4831776,43.9490654 C22.5995327,43.9490654 22.1018692,44.8037383 22.1018692,45.4383178 C22.1018692,46.0752336 22.0742991,46.2962617 22.0742991,46.2962617 L19.4775701,46.2962617 L19.4775701,46.2962617 Z" id="Fill-9" fill="#333333"></path>
                            <path d="M62.7168224,48.535514 C61.1439252,48.535514 59.4565421,49.3303738 59.4565421,50.9925234 C59.4565421,52.485514 60.478972,52.6228972 61.1158879,52.6228972 C61.75,52.6228972 62.6892523,52.2378505 62.6892523,51.0481308 C62.6892523,49.8607477 62.7168224,48.535514 62.7168224,48.535514 L62.7168224,48.535514 Z M56.9714953,46.2962617 C56.9714953,44.1682243 57.6341121,42.4 61.0313084,42.4 C64.4294393,42.4 65.5635514,43.9490654 65.5635514,45.3308411 L65.5635514,52.7995327 L67.082243,52.7995327 L67.082243,54.3093458 L62.828972,54.3093458 L62.6892523,53.2602804 C61.5850467,54.0602804 60.9214953,54.528972 59.8719626,54.528972 C58.8214953,54.528972 56.4719626,53.6724299 56.4719626,51.1037383 C56.4719626,48.535514 59.1252336,47.8976636 60.8121495,47.4845794 C62.4971963,47.0714953 62.8560748,46.5724299 62.8560748,45.4943925 C62.8560748,44.4168224 61.8602804,43.9490654 60.9757009,43.9490654 C60.0929907,43.9490654 59.5953271,44.8037383 59.5953271,45.4383178 C59.5953271,46.0752336 59.5672897,46.2962617 59.5672897,46.2962617 L56.9714953,46.2962617 L56.9714953,46.2962617 Z" id="Fill-10" fill="#333333"></path>
                            <path d="M74.2121495,48.535514 C72.6378505,48.535514 70.9528037,49.3303738 70.9528037,50.9925234 C70.9528037,52.485514 71.9757009,52.6228972 72.6102804,52.6228972 C73.2457944,52.6228972 74.1859813,52.2378505 74.1859813,51.0481308 C74.1859813,49.8607477 74.2121495,48.535514 74.2121495,48.535514 L74.2121495,48.535514 Z M68.464486,46.2962617 C68.464486,44.1682243 69.128972,42.4 72.5280374,42.4 C75.9257009,42.4 77.0598131,43.9490654 77.0598131,45.3308411 L77.0598131,52.7995327 L78.5766355,52.7995327 L78.5766355,54.3093458 L74.3224299,54.3093458 L74.1859813,53.2602804 C73.0794393,54.0602804 72.4163551,54.528972 71.367757,54.528972 C70.3172897,54.528972 67.9663551,53.6724299 67.9663551,51.1037383 C67.9663551,48.535514 70.6205607,47.8976636 72.3070093,47.4845794 C73.9920561,47.0714953 74.35,46.5724299 74.35,45.4943925 C74.35,44.4168224 73.3565421,43.9490654 72.4728972,43.9490654 C71.5883178,43.9490654 71.0911215,44.8037383 71.0911215,45.4383178 C71.0911215,46.0752336 71.0635514,46.2962617 71.0635514,46.2962617 L68.464486,46.2962617 L68.464486,46.2962617 Z" id="Fill-11" fill="#333333"></path>
                            <path d="M30.5294393,42.8514019 L34.8397196,42.8514019 L34.8121495,44.0850467 L34.8943925,44.0850467 C35.9163551,43.0065421 37.132243,42.4565421 38.4598131,42.4565421 C39.7850467,42.4565421 41.5799065,43.3943925 41.5799065,44.9981308 L41.5799065,52.7995327 L43.1009346,52.7995327 L43.1009346,54.3093458 L37.2163551,54.3093458 L37.2163551,52.7995327 L38.7074766,52.7995327 L38.7074766,45.5224299 C38.7074766,44.8037383 37.7411215,44.3060748 36.9668224,44.3060748 C36.1934579,44.3060748 34.9224299,44.9434579 34.9224299,46.2135514 L34.9224299,52.7995327 L36.3593458,52.7995327 L36.3593458,54.3093458 L30.5294393,54.3093458 L30.5294393,52.7995327 L32.0490654,52.7995327 L32.0490654,44.4719626 L30.5294393,44.4719626 L30.5294393,42.8514019" id="Fill-12" fill="#333333"></path>
                            <path d="M88.4037383,42.6308411 C87.1514019,42.188785 85.5313084,42.4102804 84.2785047,43.6626168 L84.1308411,43.5892523 L84.0551402,42.8514019 L79.8191589,42.8514019 L79.8191589,44.1406542 L81.3327103,44.1406542 L81.3327103,52.7995327 L79.8191589,52.7995327 L79.8191589,54.3093458 L85.7149533,54.3093458 L85.7149533,52.7995327 L84.2037383,52.7995327 L84.2037383,46.2771028 C84.2037383,44.5841121 85.9373832,44.3626168 86.3415888,44.3626168 C86.7471963,44.3626168 87.8906542,44.65 88.4070093,45.2392523 L88.4037383,42.6308411" id="Fill-13" fill="#333333"></path>
                            <path d="M48.7640187,52.6649533 C48.0457944,52.6649533 46.6238318,52.3186916 46.6238318,48.5439252 C46.6238318,44.7663551 48.0102804,44.3200935 48.7640187,44.3200935 C49.685514,44.3200935 51.1397196,44.511215 51.1397196,48.5439252 C51.1397196,52.5775701 49.6663551,52.6649533 48.7640187,52.6649533 L48.7640187,52.6649533 Z M53.8485981,52.7995327 L53.8485981,37.9084112 L49.6303738,37.9084112 L49.6214953,39.4560748 L51.1397196,39.4560748 L51.1397196,43.8934579 C50.6434579,43.1462617 49.5369159,42.4836449 48.3775701,42.4836449 C47.2172897,42.4836449 43.7925234,43.45 43.7925234,48.4247664 C43.7925234,53.3953271 46.6107477,54.528972 48.4051402,54.528972 C50.2018692,54.528972 51.0028037,53.3135514 51.0028037,53.3135514 L51.1397196,53.3135514 L51.1397196,54.3093458 L55.3682243,54.3093458 L55.3682243,52.7995327 L53.8485981,52.7995327 L53.8485981,52.7995327 Z" id="Fill-14" fill="#333333"></path>
                            <path d="M93.2490654,52.6649533 C92.5308411,52.6649533 91.1070093,52.3186916 91.1070093,48.5439252 C91.1070093,44.7663551 92.4943925,44.3200935 93.2490654,44.3200935 C94.171028,44.3200935 95.6252336,44.511215 95.6252336,48.5439252 C95.6252336,52.5775701 94.1504673,52.6649533 93.2490654,52.6649533 L93.2490654,52.6649533 Z M98.3313084,52.7995327 L98.3313084,37.9084112 L94.1140187,37.9084112 L94.1060748,39.4560748 L95.6252336,39.4560748 L95.6252336,43.8934579 C95.1275701,43.1462617 94.0214953,42.4836449 92.8621495,42.4836449 C91.7018692,42.4836449 88.2752336,43.45 88.2752336,48.4247664 C88.2752336,53.3953271 91.0925234,54.528972 92.8892523,54.528972 C94.6869159,54.528972 95.4869159,53.3135514 95.4869159,53.3135514 L95.6252336,53.3135514 L95.6252336,54.3093458 L99.8528037,54.3093458 L99.8528037,52.7995327 L98.3313084,52.7995327 L98.3313084,52.7995327 Z" id="Fill-15" fill="#333333"></path>
                        </g>
                    </g>
                </g>
            </g>
        </g>
    </g>
</svg>

<svg width="100" height="55" viewBox="0 0 100 55" xmlns="http://www.w3.org/2000/svg" xmlns:xlink="http://www.w3.org/1999/xlink"><title>DSO logo</title><defs><path id="a" d="M.028.236v28.736h78.857V.236H.028z"/></defs><g fill="none" fill-rule="evenodd"><path d="M22.077 27.94v-4.067c0-3.537-1.478-7.18-3.432-7.18-1.848 0-2.957 1.266-2.904 9.345 0 7.71.74 10.19 2.8 10.19 2.323 0 3.537-3.8 3.537-8.29m-11.934-1.9c0-7.287 3.644-11.406 6.97-11.406 2.323 0 4.014 1.69 4.91 3.802V4.6c0-1.848-.368-2.324-2.587-2.324h-.37V.956L26.99.43v34.375c0 1.268.37 1.426 2.535 1.533v1.32l-7.5.263V33.8c-.632 1.954-2.216 4.49-5.068 4.49-3.644 0-6.812-4.7-6.812-12.252M35.436 34.962c-1.108 0-2.165 2.007-2.535 2.8h-1.213V25.88H32.9c2.536 5.703 6.232 10.825 9.665 10.825 2.693 0 4.12-2.324 4.014-5.228-.108-3.855-3.434-6.442-6.92-9.135-3.854-3.01-7.867-6.336-7.867-12.198 0-5.333 3.59-9.452 8.87-9.452 3.592 0 5.44 2.693 6.55 2.693.633 0 1.32-.633 2.058-2.218h1.058V11.94H49.06c-1.743-4.647-4.49-9.505-8.08-9.505-2.48 0-3.96 2.112-3.854 4.7.106 3.854 3.38 6.494 6.81 9.134 3.857 3.062 7.975 6.283 7.975 12.038 0 6.495-4.434 10.086-8.923 10.086-4.172 0-6.494-3.432-7.55-3.432" fill="#A02C33"/><path d="M59.82 36.298h1.16c1.798 0 3.952-1.158 3.952-6.933s-2.403-6.455-3.675-6.455H59.82v13.388zm-4.1-14.937h6.603c2.91 0 5.565 1.66 5.565 8.07 0 6.408-2.8 8.472-6.117 8.472h-6.114v-1.51h1.44V22.91h-1.377v-1.55z" fill="#333"/><g transform="translate(0 25.7)"><mask id="b" fill="#fff"><use xlink:href="#a"/></mask><path d="M71.73 5.017h4.337c0-2.35-.857-3.26-2.21-3.26-1.355 0-2.128 1.27-2.128 3.26zm2.126 5.803c.774 0 2.156-.636 2.156-2.57h2.68c-.387 1.96-1.714 4.062-5.028 4.062-3.316 0-4.808-2.847-4.808-6.022 0-3.178 1.6-6.054 5.027-6.054 3.426 0 5.002 2.46 5.002 6.494H71.7c-.302 3.648 1.383 4.09 2.156 4.09zM9.836 17.15v-4.982H8.26v1.448h-.137c-1.216-1.28-2.735-1.613-3.48-1.613-.748 0-4.643.718-4.643 4.614s3.675 4.585 4.2 4.807c.525.222 3.232.884 3.232 3.04 0 2.154-2.044 2.515-2.54 2.515-.5 0-3.07-.418-3.29-3.79H.03v5.418H1.63v-1.51c1.134 1.123 2.348 1.73 3.812 1.73 1.908 0 4.753-1.52 4.753-4.946 0-3.314-3.205-4.42-3.95-4.723-.747-.305-3.62-1.19-3.62-3.04 0-1.852 1.933-2.156 2.266-2.156.332 0 3.15.147 3.37 3.186h1.576M15.472 13.908h-1.408c0 2.322-1.163 3.242-1.963 3.242h-.883v1.593h1.52v7.35c0 1.742 1.85 2.957 3.343 2.875 1.492-.083 1.878-.36 1.878-.36l.056-1.88c-1.16.37-2.542.388-2.542-1.49V18.77h2.624v-1.62h-2.624v-3.242" fill="#333" mask="url(#b)"/></g><path d="M25.224 48.536c-1.574 0-3.26.794-3.26 2.457 0 1.493 1.023 1.63 1.66 1.63.634 0 1.573-.385 1.573-1.575 0-1.187.027-2.512.027-2.512zm-5.746-2.24c0-2.128.663-3.896 4.06-3.896 3.4 0 4.533 1.55 4.533 2.93v7.47h1.52v1.51h-4.255l-.138-1.05c-1.104.8-1.768 1.27-2.818 1.27s-3.4-.858-3.4-3.426 2.654-3.206 4.338-3.62c1.686-.413 2.045-.912 2.045-1.99 0-1.077-.995-1.545-1.88-1.545-.883 0-1.38.854-1.38 1.488 0 .637-.03.858-.03.858H19.48zM62.717 48.536c-1.573 0-3.26.794-3.26 2.457 0 1.493 1.022 1.63 1.66 1.63.633 0 1.572-.385 1.572-1.575 0-1.187.027-2.512.027-2.512zm-5.746-2.24c0-2.128.664-3.896 4.06-3.896 3.4 0 4.534 1.55 4.534 2.93v7.47h1.518v1.51H62.83l-.14-1.05c-1.105.8-1.77 1.27-2.818 1.27-1.05 0-3.4-.858-3.4-3.426s2.653-3.206 4.34-3.62c1.685-.413 2.044-.912 2.044-1.99 0-1.077-.996-1.545-1.88-1.545-.883 0-1.38.854-1.38 1.488 0 .637-.03.858-.03.858h-2.595zM74.212 48.536c-1.574 0-3.26.794-3.26 2.457 0 1.493 1.024 1.63 1.658 1.63.636 0 1.576-.385 1.576-1.575 0-1.187.026-2.512.026-2.512zm-5.748-2.24c0-2.128.665-3.896 4.064-3.896 3.398 0 4.532 1.55 4.532 2.93v7.47h1.517v1.51h-4.255l-.136-1.05c-1.107.8-1.77 1.27-2.818 1.27-1.05 0-3.402-.858-3.402-3.426s2.655-3.206 4.34-3.62c1.686-.413 2.044-.912 2.044-1.99 0-1.077-.993-1.545-1.877-1.545-.885 0-1.382.854-1.382 1.488 0 .637-.026.858-.026.858h-2.6zM30.53 42.85h4.31l-.028 1.235h.082c1.022-1.078 2.238-1.628 3.566-1.628 1.325 0 3.12.937 3.12 2.54V52.8h1.52v1.51h-5.884V52.8h1.49v-7.278c0-.718-.965-1.216-1.74-1.216-.773 0-2.044.637-2.044 1.908V52.8h1.437v1.51h-5.83V52.8h1.52v-8.328h-1.52v-1.62M88.404 42.63c-1.253-.44-2.873-.22-4.125 1.033l-.15-.074-.075-.74H79.82v1.29h1.513v8.66H79.82v1.51h5.895V52.8h-1.51v-6.523c0-1.693 1.732-1.914 2.137-1.914s1.55.287 2.065.876l-.003-2.61M48.764 52.665c-.718 0-2.14-.346-2.14-4.12 0-3.78 1.386-4.225 2.14-4.225.922 0 2.376.19 2.376 4.224s-1.474 4.12-2.376 4.12zm5.085.135V37.908h-4.22l-.01 1.548h1.52v4.437c-.497-.747-1.603-1.41-2.762-1.41-1.16 0-4.585.967-4.585 5.942 0 4.97 2.818 6.104 4.612 6.104 1.797 0 2.598-1.216 2.598-1.216h.137v.995h4.228V52.8h-1.52zM93.25 52.665c-.72 0-2.143-.346-2.143-4.12 0-3.78 1.387-4.225 2.142-4.225.92 0 2.375.19 2.375 4.224s-1.475 4.12-2.376 4.12zm5.08.135V37.908h-4.216l-.008 1.548h1.52v4.437c-.498-.747-1.605-1.41-2.764-1.41-1.16 0-4.587.967-4.587 5.942 0 4.97 2.818 6.104 4.614 6.104 1.797 0 2.597-1.216 2.597-1.216h.138v.995h4.228V52.8H98.33z" fill="#333"/></g></svg>
